X: 17
T: Tamborin Dance
%R: march, reel
B: "Twenty Four Country Dances for the Year 1780", Thomas Skillern, ed. p.9 #1
F: http://www.vwml.org/browse/browse-collections-dance-tune-books/browse-skillerns1780#
Z: 2014 John Chambers <jc:trillian.mit.edu>
M: C
L: 1/8
K: D
[f2A2D2][f2A2D2] [f3A3D3]a | gfed c/d/e/c/ A2 |\
dA fe/d/ eA gf/e/ | fg/a/ gf f2e2 ::\
A>Bcd efgf | edcB B2^A2 |
f2 gf/e/ fb a/g/f/e/ | d2c2 B2z2 |\
[f2A2D2][f2A2D2] [f3A3D3]a | gfed c/d/e/c/ A2 |\
dA fe/d/ eA gf/e/ | fe/d/ Ac d2D2 :|
%%begintext align
%% First four Cu. pas Rigodon Chassee to each others
%% side & Right hands across .|. the same back again :|.
%% four first Cu. Promenade round .|: Gent: & Ladys
%% lead off clapping Hands meet in the middle each
%% leading up his own Partner to their own place &
%% top Cu. casts off one Cu. :|:
%%endtext

%%sep 1 1 500
%%sep 1 1 500
